packages/dnb-ui-lib/assets/icons/car_2.svg

<svg width="16" height="16" viewBox="0 0 16 16" fill="none" xmlns="http://www.w3.org/2000/svg">
<path d="M12.1801 7.60353C12.9248 7.60252 13.6395 7.95638 14.168 8.58772C14.6964 9.21906 14.9956 10.0765 15 10.9725C15 11.2703 14.9017 11.556 14.7266 11.7666C14.5516 11.9772 14.3142 12.0955 14.0667 12.0955C13.7414 12.0955 13.4162 12.0955 13.0909 12.0955M12.1801 7.60353C12.1801 7.60353 10.7802 2.55005 7.04689 2.55005C6.9406 2.55005 6.834 2.55294 6.72727 2.55886M12.1801 7.60353L6.72727 7.60006M2.72964 12.0955C2.72964 12.7984 3.29946 13.3682 4.00237 13.3682C4.6514 13.3682 5.18696 12.8824 5.26525 12.2546M2.72964 12.0955C2.72964 11.3926 3.29946 10.8228 4.00237 10.8228C4.70527 10.8228 5.27509 11.3926 5.27509 12.0955C5.27509 12.1494 5.27174 12.2025 5.26525 12.2546M2.72964 12.0955L1.91365 12.0955C1.79027 12.0953 1.66819 12.0651 1.55476 12.0067C1.44133 11.9483 1.3389 11.8629 1.25362 11.7556C1.16835 11.6483 1.10199 11.5214 1.05856 11.3824C1.01512 11.2435 0.995496 11.0954 1.00087 10.9471C1.04887 9.66009 1.20924 8.55089 1.45765 7.60006M13.0909 12.0955C13.0909 12.7984 12.5211 13.3682 11.8182 13.3682C11.1692 13.3682 10.6336 12.8824 10.5553 12.2546M13.0909 12.0955C13.0909 11.3926 12.5211 10.8228 11.8182 10.8228C11.1153 10.8228 10.5455 11.3926 10.5455 12.0955C10.5455 12.1494 10.5488 12.2025 10.5553 12.2546M6.72727 2.55886V7.60006M6.72727 2.55886C4.58888 2.67742 2.39564 4.00972 1.45765 7.60006M6.72727 7.60006H1.45765M5.26525 12.2546H10.5553" stroke="black" stroke-width="1.5" stroke-linecap="round" stroke-linejoin="round"/>
</svg>

<svg width="16" height="16" viewBox="0 0 16 16" fill="none" xmlns="http://www.w3.org/2000/svg"><path d="M12.18 7.604c.745-.001 1.46.352 1.988.984.528.631.828 1.489.832 2.385 0 .297-.098.583-.273.794a.861.861 0 01-.66.329h-.976m-.91-4.492S10.78 2.55 7.046 2.55c-.106 0-.213.003-.32.009m5.453 5.045L6.727 7.6M2.73 12.095a1.273 1.273 0 002.535.16m-2.535-.16a1.273 1.273 0 112.535.16m-2.535-.16h-.816a.785.785 0 01-.36-.088.932.932 0 01-.3-.251 1.151 1.151 0 01-.195-.374A1.304 1.304 0 011 10.947c.048-1.287.208-2.396.457-3.347m11.633 4.495a1.273 1.273 0 01-2.536.16m2.536-.16a1.273 1.273 0 10-2.536.16M6.727 2.559V7.6m0-5.041c-2.138.118-4.331 1.45-5.27 5.041m5.27 0h-5.27m3.808 4.655h5.29" stroke="#000" stroke-width="1.5" stroke-linecap="round" stroke-linejoin="round"/></svg>
